src/assets/featured.svg

<svg xmlns="http://www.w3.org/2000/svg" width="441.401" height="71.101" viewBox="6.9 -4.001 447.401 77.101"><path fill="#5eead4" fill-rule="evenodd" stroke="#5eead4" stroke-linecap="round" stroke-width=".945" d="M90.9 30.5v3H61.2L91.8 3.1H58v64h38.8v3H55V.1h44.1L68.5 30.5h22.4Zm284.8 0v3H346l30.6-30.4h-33.8v64h38.8v3h-41.8V.1h44.1l-30.6 30.4h22.4Zm-83.1 39.6v-3h27.6l-12.1-33.2 5.6-3.2a13.374 13.374 0 0 0 4.531-3.918q2.369-3.319 2.369-8.182 0-15.033-22.201-15.486A68.677 68.677 0 0 0 297 3.1h-9.2v67h-3V.1H297q8.124 0 13.786 1.837A21.846 21.846 0 0 1 316.9 4.95a15.496 15.496 0 0 1 6.568 11.253 21.105 21.105 0 0 1 .132 2.397 18.604 18.604 0 0 1-1.027 6.344q-1.76 4.885-6.541 7.865a20.464 20.464 0 0 1-.832.491l-3.4 1.9 12.7 34.9h-31.9Zm-65-67v-3h38.3V40q0 14.613-4.588 22.178a19.526 19.526 0 0 1-.912 1.372 17.385 17.385 0 0 1-9.531 6.488q-2.971.863-6.573 1.025a37.814 37.814 0 0 1-1.696.037 31.499 31.499 0 0 1-6.704-.665q-4.066-.887-7.069-2.954a16.601 16.601 0 0 1-4.027-3.931 23.673 23.673 0 0 1-3.229-6.477Q219.3 50.281 219.3 40V.1h3V40q0 6.345.818 11.141a38.845 38.845 0 0 0 .582 2.809q1.023 4.129 2.794 6.843A13.26 13.26 0 0 0 227.9 62.6a17.002 17.002 0 0 0 3.572 2.946 14.769 14.769 0 0 0 2.728 1.304 20.022 20.022 0 0 0 3.524.887q2.235.363 4.876.363a32.254 32.254 0 0 0 3.75-.206q2.572-.302 4.65-1.044a15.405 15.405 0 0 0 5.202-3.166A18.71 18.71 0 0 0 257.3 62.6q2.8-3 4.2-8.65 1.058-4.271 1.317-10.055A87.386 87.386 0 0 0 262.9 40V3.1h-35.3Zm-113.2 67v-3h36.8L130 8.8l-22.3 61.3h-3.2L130 0l25.5 70.1h-41.1ZM35.9 30.5v3H6.2L36.8 3.1H3v67H0V.1h44.1L13.5 30.5h22.4ZM158.8.1h50v3h-23.5v67h-3v-67h-23.5v-3Zm248.2 70h-9.6V.1h9.6a32.149 32.149 0 0 1 23.612 9.788 39.801 39.801 0 0 1 .788.812 37.039 37.039 0 0 1 7.578 11.591A33.972 33.972 0 0 1 441.4 35.1a34.392 34.392 0 0 1-9.537 23.901 44.366 44.366 0 0 1-.463.499 33.217 33.217 0 0 1-12.642 8.571A33.477 33.477 0 0 1 407 70.1Zm-6.6-3h6.6q13.1 0 22.25-9.65t9.15-22.35q0-12.7-9.15-22.35a30.493 30.493 0 0 0-11.366-7.736A30.463 30.463 0 0 0 407 3.1h-6.6v64Z" font-size="12" style="stroke:#5eead4;stroke-width:.25mm;fill:#5eead4"/></svg>

<svg width="441.401" height="71.101" viewBox="6.9 -4.0010605599012266 447.4006430211325 77.10106055990124" xmlns="http://www.w3.org/2000/svg"><g id="svgGroup" stroke-linecap="round" fill-rule="evenodd" font-size="9pt" stroke="#5eead4" stroke-width="0.25mm" fill="#5eead4" style="stroke:#5eead4;stroke-width:0.25mm;fill:#5eead4"><path d="M 90.9 30.5 L 90.9 33.5 L 61.2 33.5 L 91.8 3.1 L 58 3.1 L 58 67.1 L 96.8 67.1 L 96.8 70.1 L 55 70.1 L 55 0.1 L 99.1 0.1 L 68.5 30.5 L 90.9 30.5 Z M 375.7 30.5 L 375.7 33.5 L 346 33.5 L 376.6 3.1 L 342.8 3.1 L 342.8 67.1 L 381.6 67.1 L 381.6 70.1 L 339.8 70.1 L 339.8 0.1 L 383.9 0.1 L 353.3 30.5 L 375.7 30.5 Z M 292.6 70.1 L 292.6 67.1 L 320.2 67.1 L 308.1 33.9 L 313.7 30.7 A 13.374 13.374 0 0 0 318.231 26.782 Q 320.6 23.463 320.6 18.6 Q 320.6 3.567 298.399 3.114 A 68.677 68.677 0 0 0 297 3.1 L 287.8 3.1 L 287.8 70.1 L 284.8 70.1 L 284.8 0.1 L 297 0.1 Q 305.124 0.1 310.786 1.937 A 21.846 21.846 0 0 1 316.9 4.95 A 15.496 15.496 0 0 1 323.468 16.203 A 21.105 21.105 0 0 1 323.6 18.6 A 18.604 18.604 0 0 1 322.573 24.944 Q 320.813 29.829 316.032 32.809 A 20.464 20.464 0 0 1 315.2 33.3 L 311.8 35.2 L 324.5 70.1 L 292.6 70.1 Z M 227.6 3.1 L 227.6 0.1 L 265.9 0.1 L 265.9 40 Q 265.9 54.613 261.312 62.178 A 19.526 19.526 0 0 1 260.4 63.55 A 17.385 17.385 0 0 1 250.869 70.038 Q 247.898 70.901 244.296 71.063 A 37.814 37.814 0 0 1 242.6 71.1 A 31.499 31.499 0 0 1 235.896 70.435 Q 231.83 69.548 228.827 67.481 A 16.601 16.601 0 0 1 224.8 63.55 A 23.673 23.673 0 0 1 221.571 57.073 Q 219.3 50.281 219.3 40 L 219.3 0.1 L 222.3 0.1 L 222.3 40 Q 222.3 46.345 223.118 51.141 A 38.845 38.845 0 0 0 223.7 53.95 Q 224.723 58.079 226.494 60.793 A 13.26 13.26 0 0 0 227.9 62.6 A 17.002 17.002 0 0 0 231.472 65.546 A 14.769 14.769 0 0 0 234.2 66.85 A 20.022 20.022 0 0 0 237.724 67.737 Q 239.959 68.1 242.6 68.1 A 32.254 32.254 0 0 0 246.35 67.894 Q 248.922 67.592 251 66.85 A 15.405 15.405 0 0 0 256.202 63.684 A 18.71 18.71 0 0 0 257.3 62.6 Q 260.1 59.6 261.5 53.95 Q 262.558 49.679 262.817 43.895 A 87.386 87.386 0 0 0 262.9 40 L 262.9 3.1 L 227.6 3.1 Z M 114.4 70.1 L 114.4 67.1 L 151.2 67.1 L 130 8.8 L 107.7 70.1 L 104.5 70.1 L 130 0 L 155.5 70.1 L 114.4 70.1 Z M 35.9 30.5 L 35.9 33.5 L 6.2 33.5 L 36.8 3.1 L 3 3.1 L 3 70.1 L 0 70.1 L 0 0.1 L 44.1 0.1 L 13.5 30.5 L 35.9 30.5 Z M 158.8 0.1 L 208.8 0.1 L 208.8 3.1 L 185.3 3.1 L 185.3 70.1 L 182.3 70.1 L 182.3 3.1 L 158.8 3.1 L 158.8 0.1 Z M 407 70.1 L 397.4 70.1 L 397.4 0.1 L 407 0.1 A 32.149 32.149 0 0 1 430.612 9.888 A 39.801 39.801 0 0 1 431.4 10.7 A 37.039 37.039 0 0 1 438.978 22.291 A 33.972 33.972 0 0 1 441.4 35.1 A 34.392 34.392 0 0 1 431.863 59.001 A 44.366 44.366 0 0 1 431.4 59.5 A 33.217 33.217 0 0 1 418.758 68.071 A 33.477 33.477 0 0 1 407 70.1 Z M 400.4 67.1 L 407 67.1 Q 420.1 67.1 429.25 57.45 Q 438.4 47.8 438.4 35.1 Q 438.4 22.4 429.25 12.75 A 30.493 30.493 0 0 0 417.884 5.014 A 30.463 30.463 0 0 0 407 3.1 L 400.4 3.1 L 400.4 67.1 Z"/></g></svg>
